;FLAVOR:Marlin
;TIME:7710
;Filament used: 5.06598m
;Layer height: 0.2
;MINX:19.607
;MINY:24.559
;MINZ:0.2
;MAXX:200.393
;MAXY:196.294
;MAXZ:4.4
;Generated with Cura_SteamEngine 4.8.0
M140 S60
M105
M190 S60
M104 S200
M105
M109 S200
M82 ;absolute extrusion mode
; Ender 3 Custom Start G-code
G92 E0 ; Reset Extruder
G28 ; Home all axes
G1 Z2.0 F3000 ; Move Z Axis up little to prevent scratching of Heat Bed
G1 X0.1 Y20 Z0.3 F5000.0 ; Move to start position
G1 X0.1 Y200.0 Z0.3 F1500.0 E15 ; Draw the first line
G1 X0.4 Y200.0 Z0.3 F5000.0 ; Move to side a little
G1 X0.4 Y20 Z0.3 F1500.0 E30 ; Draw the second line
G92 E0 ; Reset Extruder
G1 Z2.0 F3000 ; Move Z Axis up little to prevent scratching of Heat Bed
G1 X5 Y20 Z0.3 F5000.0 ; Move over to prevent blob squish
G92 E0
G92 E0
G1 F1500 E-6.5
;LAYER_COUNT:22
;LAYER:0
M107
;MESH:7e6e7f16-8d0b-48b9-a7cc-b69f7381af78.stl
G0 F6000 X125.805 Y195.041 Z0.2
;TYPE:WALL-INNER
G1 F1500 E0
G1 F1200 X125.805 Y136.241 E1.9557
G1 X131.972 Y136.241 E2.16081
G1 X131.972 Y195.041 E4.11651
G1 X125.805 Y195.041 E4.32162
G0 F6000 X125.405 Y195.441
;TYPE:WALL-OUTER
G1 F1200 X125.405 Y135.841 E6.30393
G1 X132.372 Y135.841 E6.53565
G1 X132.372 Y195.441 E8.51795
G1 X125.405 Y195.441 E8.74968
G0 F6000 X125.675 Y195.171
G0 X125.915 Y194.651
G0 X126.195 Y194.651
;TYPE:SKIN
G1 F1200 X126.195 Y136.631 E10.67943
G1 X131.582 Y136.631 E10.8586
G1 X131.582 Y194.651 E12.78836
G1 X126.195 Y194.651 E12.96753
G0 F6000 X126.608 Y194.49
G1 F1200 X126.355 Y194.237 E12.97943
G0 F6000 X126.355 Y193.671
G1 F1200 X127.173 Y194.49 E13.01793
G0 F6000 X127.739 Y194.49
G1 F1200 X126.355 Y193.105 E13.08305
G0 F6000 X126.355 Y192.54
G1 F1200 X128.305 Y194.49 E13.17477
G0 F6000 X128.87 Y194.49
G1 F1200 X126.355 Y191.974 E13.29309
G0 F6000 X126.355 Y191.408
G1 F1200 X129.436 Y194.49 E13.43804
G0 F6000 X130.002 Y194.49
G1 F1200 X126.355 Y190.843 E13.60958
G0 F6000 X126.355 Y190.277
G1 F1200 X130.567 Y194.49 E13.80773
G0 F6000 X131.133 Y194.49
G1 F1200 X126.355 Y189.711 E14.03249
G0 F6000 X126.355 Y189.146
G1 F1200 X131.422 Y194.213 E14.27083
G0 F6000 X131.422 Y193.647
G1 F1200 X126.355 Y188.58 E14.50916
G0 F6000 X126.355 Y188.014
G1 F1200 X131.422 Y193.081 E14.7475
G0 F6000 X131.422 Y192.516
G1 F1200 X126.355 Y187.449 E14.98584
G0 F6000 X126.355 Y186.883
G1 F1200 X131.422 Y191.95 E15.22417
G0 F6000 X131.422 Y191.384
G1 F1200 X126.355 Y186.317 E15.46251
G0 F6000 X126.355 Y185.752
G1 F1200 X131.422 Y190.819 E15.70084
G0 F6000 X131.422 Y190.253
G1 F1200 X126.355 Y185.186 E15.93918
G0 F6000 X126.355 Y184.62
G1 F1200 X131.422 Y189.687 E16.17752
G0 F6000 X131.422 Y189.122
G1 F1200 X126.355 Y184.054 E16.41588
G0 F6000 X126.355 Y183.489
G1 F1200 X131.422 Y188.556 E16.65421
G0 F6000 X131.422 Y187.99
G1 F1200 X126.355 Y182.923 E16.89255
G0 F6000 X126.355 Y182.357
G1 F1200 X131.422 Y187.425 E17.13091
G0 F6000 X131.422 Y186.859
G1 F1200 X126.355 Y181.792 E17.36924
G0 F6000 X126.355 Y181.226
G1 F1200 X131.422 Y186.293 E17.60758
G0 F6000 X131.422 Y185.727
G1 F1200 X126.355 Y180.66 E17.84592
G0 F6000 X126.355 Y180.095
G1 F1200 X131.422 Y185.162 E18.08425
G0 F6000 X131.422 Y184.596
G1 F1200 X126.355 Y179.529 E18.32259
G0 F6000 X126.355 Y178.963
G1 F1200 X131.422 Y184.03 E18.56093
G0 F6000 X131.422 Y183.465
G1 F1200 X126.355 Y178.398 E18.79926
G0 F6000 X126.355 Y177.832
G1 F1200 X131.422 Y182.899 E19.0376
G0 F6000 X131.422 Y182.333
G1 F1200 X126.355 Y177.266 E19.27593
G0 F6000 X126.355 Y176.701
G1 F1200 X131.422 Y181.768 E19.51427
G0 F6000 X131.422 Y181.202
G1 F1200 X126.355 Y176.135 E19.75261
G0 F6000 X126.355 Y175.569
G1 F1200 X131.422 Y180.636 E19.99094
G0 F6000 X131.422 Y180.071
G1 F1200 X126.355 Y175.003 E20.2293
G0 F6000 X126.355 Y174.438
G1 F1200 X131.422 Y179.505 E20.46764
G0 F6000 X131.422 Y178.939
G1 F1200 X126.355 Y173.872 E20.70597
G0 F6000 X126.355 Y173.306
G1 F1200 X131.422 Y178.374 E20.94433
G0 F6000 X131.422 Y177.808
G1 F1200 X126.355 Y172.741 E21.18267
G0 F6000 X126.355 Y172.175
G1 F1200 X131.422 Y177.242 E21.42101
G0 F6000 X131.422 Y176.676
G1 F1200 X126.355 Y171.609 E21.65934
G0 F6000 X126.355 Y171.044
G1 F1200 X131.422 Y176.111 E21.89768
G0 F6000 X131.422 Y175.545
G1 F1200 X126.355 Y170.478 E22.13601
G0 F6000 X126.355 Y169.912
G1 F1200 X131.422 Y174.979 E22.37435
G0 F6000 X131.422 Y174.414
G1 F1200 X126.355 Y169.347 E22.61269
G0 F6000 X126.355 Y168.781
G1 F1200 X131.422 Y173.848 E22.85102
G0 F6000 X131.422 Y173.282
G1 F1200 X126.355 Y168.215 E23.08936
G0 F6000 X126.355 Y167.65
G1 F1200 X131.422 Y172.717 E23.32769
G0 F6000 X131.422 Y172.151
G1 F1200 X126.355 Y167.084 E23.56603
G0 F6000 X126.355 Y166.518
G1 F1200 X131.422 Y171.585 E23.80437
G0 F6000 X131.422 Y171.02
G1 F1200 X126.355 Y165.953 E24.0427
G0 F6000 X126.355 Y165.387
G1 F1200 X131.422 Y170.454 E24.28104
G0 F6000 X131.422 Y169.888
G1 F1200 X126.355 Y164.821 E24.51938
G0 F6000 X126.355 Y164.255
G1 F1200 X131.422 Y169.323 E24.75774
G0 F6000 X131.422 Y168.757
G1 F1200 X126.355 Y163.69 E24.99607
G0 F6000 X126.355 Y163.124
G1 F1200 X131.422 Y168.191 E25.23441
G0 F6000 X131.422 Y167.626
G1 F1200 X126.355 Y162.558 E25.47277
G0 F6000 X126.355 Y161.993
G1 F1200 X131.422 Y167.06 E25.7111
G0 F6000 X131.422 Y166.494
G1 F1200 X126.355 Y161.427 E25.94944
G0 F6000 X126.355 Y160.861
G1 F1200 X131.422 Y165.928 E26.18778
G0 F6000 X131.422 Y165.363
G1 F1200 X126.355 Y160.296 E26.42611
G0 F6000 X126.355 Y159.73
G1 F1200 X131.422 Y164.797 E26.66445
G0 F6000 X131.422 Y164.231
G1 F1200 X126.355 Y159.164 E26.90278
G0 F6000 X126.355 Y158.599
G1 F1200 X131.422 Y163.666 E27.14112
G0 F6000 X131.422 Y163.1
G1 F1200 X126.355 Y158.033 E27.37946
G0 F6000 X126.355 Y157.467
G1 F1200 X131.422 Y162.534 E27.61779
G0 F6000 X131.422 Y161.969
G1 F1200 X126.355 Y156.902 E27.85613
G0 F6000 X126.355 Y156.336
G1 F1200 X131.422 Y161.403 E28.09446
G0 F6000 X131.422 Y160.837
G1 F1200 X126.355 Y155.77 E28.3328
G0 F6000 X126.355 Y155.204
G1 F1200 X131.422 Y160.272 E28.57116
G0 F6000 X131.422 Y159.706
G1 F1200 X126.355 Y154.639 E28.8095
G0 F6000 X126.355 Y154.073
G1 F1200 X131.422 Y159.14 E29.04783
G0 F6000 X131.422 Y158.575
G1 F1200 X126.355 Y153.507 E29.28619
G0 F6000 X126.355 Y152.942
G1 F1200 X131.422 Y158.009 E29.52453
G0 F6000 X131.422 Y157.443
G1 F1200 X126.355 Y152.376 E29.76286
G0 F6000 X126.355 Y151.81
G1 F1200 X131.422 Y156.878 E30.00122
G0 F6000 X131.422 Y156.312
G1 F1200 X126.355 Y151.245 E30.23956
G0 F6000 X126.355 Y150.679
G1 F1200 X131.422 Y155.746 E30.4779
G0 F6000 X131.422 Y155.18
G1 F1200 X126.355 Y150.113 E30.71623
G0 F6000 X126.355 Y149.548
G1 F1200 X131.422 Y154.615 E30.95457
G0 F6000 X131.422 Y154.049
G1 F1200 X126.355 Y148.982 E31.19291
G0 F6000 X126.355 Y148.416
G1 F1200 X131.422 Y153.483 E31.43124
G0 F6000 X131.422 Y152.918
G1 F1200 X126.355 Y147.851 E31.66958
G0 F6000 X126.355 Y147.285
G1 F1200 X131.422 Y152.352 E31.90791
G0 F6000 X131.422 Y151.786
G1 F1200 X126.355 Y146.719 E32.14625
G0 F6000 X126.355 Y146.154
G1 F1200 X131.422 Y151.221 E32.38459
G0 F6000 X131.422 Y150.655
G1 F1200 X126.355 Y145.588 E32.62292
G0 F6000 X126.355 Y145.022
G1 F1200 X131.422 Y150.089 E32.86126
G0 F6000 X131.422 Y149.524
G1 F1200 X126.355 Y144.456 E33.09962
G0 F6000 X126.355 Y143.891
G1 F1200 X131.422 Y148.958 E33.33795
G0 F6000 X131.422 Y148.392
G1 F1200 X126.355 Y143.325 E33.57629
G0 F6000 X126.355 Y142.759
G1 F1200 X131.422 Y147.827 E33.81465
G0 F6000 X131.422 Y147.261
G1 F1200 X126.355 Y142.194 E34.05299
G0 F6000 X126.355 Y141.628
G1 F1200 X131.422 Y146.695 E34.29132
G0 F6000 X131.422 Y146.129
G1 F1200 X126.355 Y141.062 E34.52966
G0 F6000 X126.355 Y140.497
G1 F1200 X131.422 Y145.564 E34.76799
G0 F6000 X131.422 Y144.998
G1 F1200 X126.355 Y139.931 E35.00633
G0 F6000 X126.355 Y139.365
G1 F1200 X131.422 Y144.432 E35.24467
G0 F6000 X131.422 Y143.867
G1 F1200 X126.355 Y138.8 E35.483
G0 F6000 X126.355 Y138.234
G1 F1200 X131.422 Y143.301 E35.72134
G0 F6000 X131.422 Y142.735
G1 F1200 X126.355 Y137.668 E35.95968
G0 F6000 X126.355 Y137.103
G1 F1200 X131.422 Y142.17 E36.19801
G0 F6000 X131.422 Y141.604
G1 F1200 X126.608 Y136.79 E36.42445
G0 F6000 X127.173 Y136.79
G1 F1200 X131.422 Y141.038 E36.62428
G0 F6000 X131.422 Y140.473
G1 F1200 X127.739 Y136.79 E36.79752
G0 F6000 X128.305 Y136.79
G1 F1200 X131.422 Y139.907 E36.94413
G0 F6000 X131.422 Y139.341
G1 F1200 X128.87 Y136.79 E37.06415
G0 F6000 X129.436 Y136.79
G1 F1200 X131.422 Y138.776 E37.15756
G0 F6000 X131.422 Y138.21
G1 F1200 X130.002 Y136.79 E37.22436
G0 F6000 X130.567 Y136.79
G1 F1200 X131.422 Y137.644 E37.26455
G0 F6000 X131.422 Y137.079
G1 F1200 X131.133 Y136.79 E37.27814
G0 F6000 X131.133 Y136.441
G1 F1500 E30.77814
G0 F6000 X131.133 Y136.351
G0 X131.79 Y136.423
G0 X132.152 Y195.041
G0 X133.237 Y195.041
G0 X143.162 Y195.041
G0 X144.247 Y195.041
G0 X144.427 Y195.041
;TYPE:WALL-INNER
G1 F1500 E37.27814
G1 F1200 X144.427 Y136.241 E39.23384
G1 X150.594 Y136.241 E39.43896
G1 X150.594 Y195.041 E41.39465
G1 X144.427 Y195.041 E41.59977
G0 F6000 X144.027 Y195.441
;TYPE:WALL-OUTER
G1 F1200 X144.027 Y135.841 E43.58207
G1 X150.994 Y135.841 E43.81379
G1 X150.994 Y195.441 E45.7961
G1 X144.027 Y195.441 E46.02782
G0 F6000 X144.297 Y195.171
G0 X144.537 Y194.651
G0 X144.817 Y194.651
;TYPE:SKIN
G1 F1200 X144.817 Y136.631 E47.95757
G1 X150.204 Y136.631 E48.13675
G1 X150.204 Y194.651 E50.0665
G1 X144.817 Y194.651 E50.24567
G0 F6000 X145.275 Y194.49
G1 F1200 X144.976 Y194.191 E50.25974
G0 F6000 X144.976 Y193.625
G1 F1200 X145.841 Y194.49 E50.30042
G0 F6000 X146.407 Y194.49
G1 F1200 X144.976 Y193.059 E50.36773
G0 F6000 X144.976 Y192.494
G1 F1200 X146.972 Y194.49 E50.46162
G0 F6000 X147.538 Y194.49
G1 F1200 X144.976 Y191.928 E50.58213
G0 F6000 X144.976 Y191.362
G1 F1200 X148.104 Y194.49 E50.72926
G0 F6000 X148.669 Y194.49
G1 F1200 X144.976 Y190.797 E50.90297
G0 F6000 X144.976 Y190.231
G1 F1200 X149.235 Y194.49 E51.1033
G0 F6000 X149.801 Y194.49
G1 F1200 X144.976 Y189.665 E51.33025
G0 F6000 X144.976 Y189.1
G1 F1200 X150.044 Y194.167 E51.56861
G0 F6000 X150.044 Y193.602
G1 F1200 X144.976 Y188.534 E51.80699
G0 F6000 X144.976 Y187.968
G1 F1200 X150.044 Y193.036 E52.04538
G0 F6000 X150.044 Y192.47
G1 F1200 X144.976 Y187.403 E52.28374
G0 F6000 X144.976 Y186.837
G1 F1200 X150.044 Y191.905 E52.52212
G0 F6000 X150.044 Y191.339
G1 F1200 X144.976 Y186.271 E52.7605
G0 F6000 X144.976 Y185.706
G1 F1200 X150.044 Y190.773 E52.99886
G0 F6000 X150.044 Y190.208
G1 F1200 X144.976 Y185.14 E53.23724
G0 F6000 X144.976 Y184.574
G1 F1200 X150.044 Y189.642 E53.47563
G0 F6000 X150.044 Y189.076
G1 F1200 X144.976 Y184.008 E53.71401
G0 F6000 X144.976 Y183.443
G1 F1200 X150.044 Y188.511 E53.95239
G0 F6000 X150.044 Y187.945
G1 F1200 X144.976 Y182.877 E54.19078
G0 F6000 X144.976 Y182.311
G1 F1200 X150.044 Y187.379 E54.42916
G0 F6000 X150.044 Y186.814
G1 F1200 X144.976 Y181.746 E54.66754
G0 F6000 X144.976 Y181.18
G1 F1200 X150.044 Y186.248 E54.90593
G0 F6000 X150.044 Y185.682
G1 F1200 X144.976 Y180.614 E55.14431
G0 F6000 X144.976 Y180.049
G1 F1200 X150.044 Y185.117 E55.38269
G0 F6000 X150.044 Y184.551
G1 F1200 X144.976 Y179.483 E55.62108
G0 F6000 X144.976 Y178.917
G1 F1200 X150.044 Y183.985 E55.85946
G0 F6000 X150.044 Y183.419
G1 F1200 X144.976 Y178.352 E56.09782
G0 F6000 X144.976 Y177.786
G1 F1200 X150.044 Y182.854 E56.3362
G0 F6000 X150.044 Y182.288
G1 F1200 X144.976 Y177.22 E56.57459
G0 F6000 X144.976 Y176.655
G1 F1200 X150.044 Y181.722 E56.81295
G0 F6000 X150.044 Y181.157
G1 F1200 X144.976 Y176.089 E57.05133
G0 F6000 X144.976 Y175.523
G1 F1200 X150.044 Y180.591 E57.28971
G0 F6000 X150.044 Y180.025
G1 F1200 X144.976 Y174.958 E57.52807
G0 F6000 X144.976 Y174.392
G1 F1200 X150.044 Y179.46 E57.76645
G0 F6000 X150.044 Y178.894
G1 F1200 X144.976 Y173.826 E58.00484
G0 F6000 X144.976 Y173.26
G1 F1200 X150.044 Y178.328 E58.24322
G0 F6000 X150.044 Y177.763
G1 F1200 X144.976 Y172.695 E58.4816
G0 F6000 X144.976 Y172.129
G1 F1200 X150.044 Y177.197 E58.71999
G0 F6000 X150.044 Y176.631
G1 F1200 X144.976 Y171.563 E58.95837
G0 F6000 X144.976 Y170.998
G1 F1200 X150.044 Y176.066 E59.19675
G0 F6000 X150.044 Y175.5
G1 F1200 X144.976 Y170.432 E59.43514
G0 F6000 X144.976 Y169.866
G1 F1200 X150.044 Y174.934 E59.67352
G0 F6000 X150.044 Y174.368
G1 F1200 X144.976 Y169.301 E59.91188
G0 F6000 X144.976 Y168.735
G1 F1200 X150.044 Y173.803 E60.15026
G0 F6000 X150.044 Y173.237
G1 F1200 X144.976 Y168.169 E60.38865
G0 F6000 X144.976 Y167.604
G1 F1200 X150.044 Y172.671 E60.62701
G0 F6000 X150.044 Y172.106
G1 F1200 X144.976 Y167.038 E60.86539
G0 F6000 X144.976 Y166.472
G1 F1200 X150.044 Y171.54 E61.10377
G0 F6000 X150.044 Y170.974
G1 F1200 X144.976 Y165.907 E61.34213
G0 F6000 X144.976 Y165.341
G1 F1200 X150.044 Y170.409 E61.58051
G0 F6000 X150.044 Y169.843
G1 F1200 X144.976 Y164.775 E61.8189
G0 F6000 X144.976 Y164.209
G1 F1200 X150.044 Y169.277 E62.05728
G0 F6000 X150.044 Y168.712
G1 F1200 X144.976 Y163.644 E62.29566
G0 F6000 X144.976 Y163.078
G1 F1200 X150.044 Y168.146 E62.53405
G0 F6000 X150.044 Y167.58
G1 F1200 X144.976 Y162.512 E62.77243
G0 F6000 X144.976 Y161.947
G1 F1200 X150.044 Y167.015 E63.01081
G0 F6000 X150.044 Y166.449
G1 F1200 X144.976 Y161.381 E63.2492
G0 F6000 X144.976 Y160.815
G1 F1200 X150.044 Y165.883 E63.48758
G0 F6000 X150.043 Y165.317
G1 F1200 X144.976 Y160.25 E63.72592
G0 F6000 X144.976 Y159.684
G1 F1200 X150.043 Y164.751 E63.96425
G0 F6000 X150.043 Y164.185
G1 F1200 X144.976 Y159.118 E64.20259
G0 F6000 X144.976 Y158.553
G1 F1200 X150.043 Y163.62 E64.44092
G0 F6000 X150.043 Y163.054
G1 F1200 X144.976 Y157.987 E64.67926
G0 F6000 X144.976 Y157.421
G1 F1200 X150.043 Y162.488 E64.9176
G0 F6000 X150.043 Y161.923
G1 F1200 X144.976 Y156.856 E65.15593
G0 F6000 X144.976 Y156.29
G1 F1200 X150.043 Y161.357 E65.39427
G0 F6000 X150.043 Y160.791
G1 F1200 X144.976 Y155.724 E65.63261
G0 F6000 X144.976 Y155.159
G1 F1200 X150.043 Y160.226 E65.87094
G0 F6000 X150.043 Y159.66
G1 F1200 X144.976 Y154.593 E66.10928
G0 F6000 X144.976 Y154.027
G1 F1200 X150.043 Y159.094 E66.34761
G0 F6000 X150.043 Y158.529
G1 F1200 X144.976 Y153.461 E66.58597
G0 F6000 X144.976 Y152.896
G1 F1200 X150.043 Y157.963 E66.82431
G0 F6000 X150.043 Y157.397
G1 F1200 X144.976 Y152.33 E67.06265
G0 F6000 X144.976 Y151.764
G1 F1200 X150.043 Y156.832 E67.30101
G0 F6000 X150.043 Y156.266
G1 F1200 X144.976 Y151.199 E67.53934
G0 F6000 X144.976 Y150.633
G1 F1200 X150.043 Y155.7 E67.77768
G0 F6000 X150.043 Y155.134
G1 F1200 X144.976 Y150.067 E68.01601
G0 F6000 X144.976 Y149.502
G1 F1200 X150.043 Y154.569 E68.25435
G0 F6000 X150.043 Y154.003
G1 F1200 X144.976 Y148.936 E68.49269
G0 F6000 X144.976 Y148.37
G1 F1200 X150.043 Y153.437 E68.73102
G0 F6000 X150.043 Y152.872
G1 F1200 X144.976 Y147.805 E68.96936
G0 F6000 X144.976 Y147.239
G1 F1200 X150.043 Y152.306 E69.20769
G0 F6000 X150.043 Y151.74
G1 F1200 X144.976 Y146.673 E69.44603
G0 F6000 X144.976 Y146.108
G1 F1200 X150.043 Y151.175 E69.68437
G0 F6000 X150.043 Y150.609
G1 F1200 X144.976 Y145.542 E69.9227
G0 F6000 X144.976 Y144.976
G1 F1200 X150.043 Y150.043 E70.16104
G0 F6000 X150.043 Y149.478
G1 F1200 X144.976 Y144.411 E70.39938
G0 F6000 X144.976 Y143.845
G1 F1200 X150.043 Y148.912 E70.63771
G0 F6000 X150.043 Y148.346
G1 F1200 X144.976 Y143.279 E70.87605
G0 F6000 X144.976 Y142.713
G1 F1200 X150.043 Y147.781 E71.11441
G0 F6000 X150.043 Y147.215
G1 F1200 X144.976 Y142.148 E71.35274
G0 F6000 X144.976 Y141.582
G1 F1200 X150.043 Y146.649 E71.59108
G0 F6000 X150.043 Y146.084
G1 F1200 X144.976 Y141.016 E71.82944
G0 F6000 X144.976 Y140.451
G1 F1200 X150.043 Y145.518 E72.06778
G0 F6000 X150.043 Y144.952
G1 F1200 X144.976 Y139.885 E72.30611
G0 F6000 X144.976 Y139.319
G1 F1200 X150.043 Y144.386 E72.54445
G0 F6000 X150.043 Y143.821
G1 F1200 X144.976 Y138.754 E72.78278
G0 F6000 X144.976 Y138.188
G1 F1200 X150.043 Y143.255 E73.02112
G0 F6000 X150.043 Y142.689
G1 F1200 X144.976 Y137.622 E73.25946
G0 F6000 X144.976 Y137.057
G1 F1200 X150.043 Y142.124 E73.49779
G0 F6000 X150.043 Y141.558
G1 F1200 X145.276 Y136.791 E73.72202
G0 F6000 X145.842 Y136.791
G1 F1200 X150.043 Y140.992 E73.91962
G0 F6000 X150.043 Y140.427
G1 F1200 X146.407 Y136.791 E74.09065
G0 F6000 X146.973 Y136.791
G1 F1200 X150.043 Y139.861 E74.23505
