;FLAVOR:Marlin
;TIME:2427
;Filament used: 7.68713m
;Layer height: 1
;MINX:19.407
;MINY:23.706
;MINZ:0.2
;MAXX:200.592
;MAXY:195.64
;MAXZ:4.2
;Generated with Cura_SteamEngine 4.8.0
M140 S60
M105
M190 S60
M104 S200
M105
M109 S200
M82 ;absolute extrusion mode
; Ender 3 Custom Start G-code
G92 E0 ; Reset Extruder
G28 ; Home all axes
G1 Z2.0 F3000 ; Move Z Axis up little to prevent scratching of Heat Bed
G1 X0.1 Y20 Z0.3 F5000.0 ; Move to start position
G1 X0.1 Y200.0 Z0.3 F1500.0 E15 ; Draw the first line
G1 X0.4 Y200.0 Z0.3 F5000.0 ; Move to side a little
G1 X0.4 Y20 Z0.3 F1500.0 E30 ; Draw the second line
G92 E0 ; Reset Extruder
G1 Z2.0 F3000 ; Move Z Axis up little to prevent scratching of Heat Bed
G1 X5 Y20 Z0.3 F5000.0 ; Move over to prevent blob squish
G92 E0
G92 E0
;LAYER_COUNT:5
;LAYER:0
M107
;MESH:7e6e7f16-8d0b-48b9-a7cc-b69f7381af78.stl
G0 F6000 X111.597 Y117.368 Z0.2
;TYPE:SKIN
G1 F1200 X116.004 Y117.368 E0.14658
G1 X116.829 Y118.489 E0.19287
G1 X117.739 Y119.769 E0.24511
G1 X118.622 Y121.051 E0.29688
G1 X119.468 Y122.33 E0.34788
G1 X120.285 Y123.611 E0.39842
G1 X121.095 Y124.932 E0.44996
G1 X121.828 Y126.177 E0.49801
G1 X122.549 Y127.456 E0.54684
G1 X123.241 Y128.74 E0.59536
G1 X123.901 Y130.023 E0.64334
G1 X124.553 Y131.35 E0.69252
G1 X125.111 Y132.549 E0.73651
G1 X125.698 Y133.88 E0.78489
G1 X126.233 Y135.164 E0.83115
G1 X126.736 Y136.447 E0.87699
G1 X127.209 Y137.732 E0.92253
G1 X127.588 Y138.842 E0.96154
G1 X127.943 Y139.959 E1.00053
G1 X128.273 Y141.082 E1.03946
G1 X128.579 Y142.212 E1.07839
G1 X128.86 Y143.348 E1.11732
G1 X129.117 Y144.491 E1.15628
G1 X129.349 Y145.638 E1.1952
G1 X129.556 Y146.794 E1.23426
G1 X129.749 Y148.009 E1.27518
G1 X129.899 Y149.123 E1.31257
G1 X130.034 Y150.298 E1.35191
G1 X130.144 Y151.478 E1.39132
G1 X130.23 Y152.669 E1.43104
G1 X130.291 Y153.858 E1.47064
G1 X130.328 Y155.058 E1.51057
G1 X130.34 Y156.265 E1.55072
G1 X130.323 Y157.633 E1.59622
G1 X130.274 Y158.996 E1.64158
G1 X130.188 Y160.419 E1.689
G1 X130.077 Y161.705 E1.73193
G1 X129.929 Y163.055 E1.7771
G1 X129.749 Y164.391 E1.82194
G1 X129.539 Y165.705 E1.86619
G1 X129.289 Y167.055 E1.91186
G1 X129.01 Y168.377 E1.9568
G1 X128.691 Y169.722 E2.00277
G1 X128.353 Y171.011 E2.0471
G1 X127.975 Y172.313 E2.09219
G1 X127.564 Y173.612 E2.1375
G1 X127.119 Y174.912 E2.18321
G1 X126.644 Y176.197 E2.22877
G1 X126.112 Y177.537 E2.27672
G1 X125.6 Y178.756 E2.3207
G1 X125.051 Y180.009 E2.3662
G1 X124.488 Y181.241 E2.41125
G1 X123.91 Y182.458 E2.45606
G1 X123.321 Y183.644 E2.50011
G1 X122.718 Y184.815 E2.54391
G1 X122.098 Y185.965 E2.58737
G1 X121.466 Y187.095 E2.63043
G1 X120.819 Y188.204 E2.67313
G1 X120.157 Y189.293 E2.71552
G1 X119.48 Y190.364 E2.75766
G1 X118.793 Y191.41 E2.79929
G1 X118.09 Y192.438 E2.84071
G1 X117.372 Y193.445 E2.88184
G1 X116.637 Y194.437 E2.92291
G1 X116.01 Y195.251 E2.95708
G1 X111.617 Y195.251 E3.10319
G1 X112.008 Y194.614 E3.12805
G1 X112.74 Y193.382 E3.17572
G1 X113.447 Y192.148 E3.22302
G1 X114.132 Y190.916 E3.2699
G1 X114.791 Y189.682 E3.31643
G1 X115.428 Y188.449 E3.36259
G1 X116.04 Y187.214 E3.40843
G1 X116.628 Y185.981 E3.45387
G1 X117.192 Y184.747 E3.49899
G1 X117.733 Y183.513 E3.54381
G1 X118.249 Y182.278 E3.58833
G1 X118.741 Y181.043 E3.63254
G1 X119.21 Y179.808 E3.67648
G1 X119.654 Y178.573 E3.72013
G1 X120.075 Y177.338 E3.76353
G1 X120.471 Y176.101 E3.80673
G1 X120.843 Y174.866 E3.84963
G1 X121.192 Y173.63 E3.89234
G1 X121.517 Y172.394 E3.93485
G1 X121.817 Y171.157 E3.97719
G1 X122.094 Y169.921 E4.01931
G1 X122.346 Y168.684 E4.0613
G1 X122.574 Y167.447 E4.10314
G1 X122.779 Y166.21 E4.14484
G1 X122.959 Y164.973 E4.18642
G1 X123.116 Y163.736 E4.22789
G1 X123.247 Y162.498 E4.2693
G1 X123.355 Y161.262 E4.31056
G1 X123.441 Y160.024 E4.35184
G1 X123.5 Y158.785 E4.39309
G1 X123.536 Y157.548 E4.43425
G1 X123.548 Y156.31 E4.47543
G1 X123.521 Y154.377 E4.53973
G1 X123.438 Y152.448 E4.60395
G1 X123.299 Y150.523 E4.66814
G1 X123.106 Y148.601 E4.73239
G1 X122.857 Y146.684 E4.79668
G1 X122.552 Y144.771 E4.86111
G1 X122.193 Y142.86 E4.92579
G1 X121.778 Y140.957 E4.99057
G1 X121.411 Y139.422 E5.04306
G1 X121.01 Y137.901 E5.09538
G1 X120.572 Y136.395 E5.14754
G1 X120.101 Y134.904 E5.19955
G1 X119.594 Y133.431 E5.25136
G1 X119.053 Y131.971 E5.30315
G1 X118.478 Y130.527 E5.35485
G1 X117.867 Y129.1 E5.40647
G1 X117.652 Y128.616 E5.42409
G1 X117.411 Y128.093 E5.44324
G1 X117.143 Y127.533 E5.46389
G1 X116.849 Y126.934 E5.48608
G1 X116.528 Y126.298 E5.50978
G1 X116.181 Y125.623 E5.53502
G1 X115.808 Y124.911 E5.56176
G1 X115.408 Y124.16 E5.59006
G1 X114.983 Y123.372 E5.61984
G1 X114.53 Y122.547 E5.65114
G1 X114.051 Y121.681 E5.68406
G1 X113.545 Y120.778 E5.71848
G1 X112.455 Y118.857 E5.79194
G1 X111.87 Y117.838 E5.83102
G1 X111.597 Y117.368 E5.8491
G0 F6000 X111.597 Y117.088
G0 X115.83 Y117.088
G0 X115.83 Y117.527
G1 F1200 X116.183 Y117.88 E5.86571
G0 F6000 X115.264 Y117.527
G1 F1200 X117.632 Y119.894 E5.97707
G0 F6000 X117.994 Y119.646
G0 X119.204 Y121.424
G0 X118.837 Y121.666
G1 F1200 X114.699 Y117.527 E6.17173
G0 F6000 X114.133 Y117.527
G1 F1200 X119.882 Y123.276 E6.44214
G0 F6000 X120.253 Y123.041
G0 X121.182 Y124.537
G0 X120.807 Y124.766
G1 F1200 X113.567 Y117.527 E6.78267
G0 F6000 X113.002 Y117.527
G1 F1200 X121.63 Y126.155 E7.1885
G0 F6000 X122.008 Y125.934
G0 X122.75 Y127.244
G0 X122.368 Y127.459
G1 F1200 X112.436 Y117.527 E7.65567
G0 F6000 X111.883 Y117.54
G1 F1200 X123.032 Y128.689 E8.18009
G0 F6000 X123.42 Y128.481
G0 X124.028 Y129.66
G0 X123.637 Y129.86
G1 F1200 X112.645 Y118.868 E8.69712
G0 F6000 X112.263 Y119.085
G0 X113.003 Y120.388
G0 X113.385 Y120.173
G1 F1200 X124.194 Y130.983 E9.20556
G0 F6000 X124.589 Y130.789
G0 X125.106 Y131.878
G0 X124.708 Y132.062
G1 F1200 X114.116 Y121.47 E9.70378
G0 F6000 X113.732 Y121.684
G0 X114.43 Y122.947
G0 X114.817 Y122.736
G1 F1200 X125.179 Y133.099 E10.1912
G0 F6000 X125.581 Y132.923
G0 X126.023 Y133.934
G0 X125.617 Y134.102
G1 F1200 X115.491 Y123.976 E10.6675
G0 F6000 X115.103 Y124.185
G0 X115.74 Y125.384
G0 X116.13 Y125.181
G1 F1200 X126.021 Y135.072 E11.13274
G0 F6000 X126.427 Y134.904
G0 X126.802 Y135.849
G0 X126.392 Y136.009
G1 F1200 X116.732 Y126.349 E11.58711
G0 F6000 X116.34 Y126.546
G0 X116.896 Y127.664
G0 X117.293 Y127.475
G1 F1200 X126.741 Y136.924 E12.03154
G0 F6000 X127.07 Y137.818
G1 F1200 X117.792 Y128.54 E12.46795
G0 F6000 X117.397 Y128.731
G0 X117.827 Y129.716
G0 X118.231 Y129.544
G1 F1200 X127.364 Y138.678 E12.89756
G0 F6000 X127.632 Y139.512
G1 F1200 X118.651 Y130.531 E13.32
G0 F6000 X118.243 Y130.693
G0 X118.617 Y131.633
G0 X119.026 Y131.471
G1 F1200 X127.885 Y140.33 E13.7367
G0 F6000 X128.121 Y141.132
G1 F1200 X119.378 Y132.389 E14.14795
G0 F6000 X119.711 Y133.288
G1 F1200 X128.332 Y141.908 E14.55343
G0 F6000 X128.528 Y142.67
G1 F1200 X120.011 Y134.153 E14.95404
G0 F6000 X120.303 Y135.011
G1 F1200 X128.713 Y143.421 E15.34962
G0 F6000 X128.877 Y144.15
G1 F1200 X120.563 Y135.837 E15.74066
G0 F6000 X120.813 Y136.652
G1 F1200 X129.03 Y144.869 E16.12717
G0 F6000 X129.174 Y145.579
G1 F1200 X121.046 Y137.45 E16.50951
G0 F6000 X121.263 Y138.233
G1 F1200 X129.299 Y146.269 E16.8875
G0 F6000 X129.419 Y146.955
G1 F1200 X121.466 Y139.002 E17.26158
G0 F6000 X121.656 Y139.758
G1 F1200 X129.526 Y147.628 E17.63176
G0 F6000 X129.626 Y148.294
G1 F1200 X121.833 Y140.501 E17.99832
G0 F6000 X122.002 Y141.236
G1 F1200 X129.714 Y148.947 E18.36104
G0 F6000 X129.792 Y149.591
G1 F1200 X122.16 Y141.959 E18.72003
G0 F6000 X122.318 Y142.682
G1 F1200 X129.865 Y150.23 E19.07504
G0 F6000 X129.926 Y150.856
G1 F1200 X122.454 Y143.384 E19.4265
G0 F6000 X122.585 Y144.081
G1 F1200 X129.985 Y151.481 E19.77458
G0 F6000 X130.029 Y152.091
G1 F1200 X122.714 Y144.775 E20.11867
G0 F6000 X122.821 Y145.449
G1 F1200 X130.074 Y152.701 E20.45981
G0 F6000 X130.101 Y153.295
G1 F1200 X122.929 Y146.122 E20.79718
G0 F6000 X123.032 Y146.791
G1 F1200 X130.132 Y153.891 E21.13114
G0 F6000 X130.15 Y154.474
G1 F1200 X123.116 Y147.44 E21.462
G0 F6000 X123.201 Y148.091
G1 F1200 X130.167 Y155.057 E21.78966
G0 F6000 X130.174 Y155.629
G1 F1200 X123.28 Y148.736 E22.11391
G0 F6000 X123.343 Y149.364
G1 F1200 X130.179 Y156.201 E22.43548
G0 F6000 X130.174 Y156.761
G1 F1200 X123.406 Y149.993 E22.75382
G0 F6000 X123.465 Y150.618
G1 F1200 X130.167 Y157.32 E23.06907
G0 F6000 X130.155 Y157.873
G1 F1200 X123.51 Y151.228 E23.38163
G0 F6000 X123.554 Y151.838
G1 F1200 X130.135 Y158.419 E23.69118
G0 F6000 X130.114 Y158.964
G1 F1200 X123.598 Y152.447 E23.99769
G0 F6000 X123.623 Y153.039
G1 F1200 X130.082 Y159.498 E24.3015
G0 F6000 X130.05 Y160.031
G1 F1200 X123.648 Y153.63 E24.60261
G0 F6000 X123.674 Y154.221
G1 F1200 X130.015 Y160.562 E24.90087
G0 F6000 X129.97 Y161.083
G1 F1200 X123.687 Y154.799 E25.19643
G0 F6000 X123.694 Y155.373
G1 F1200 X129.925 Y161.604 E25.48952
G0 F6000 X129.871 Y162.115
G1 F1200 X123.702 Y155.946 E25.77969
G0 F6000 X123.705 Y156.515
G1 F1200 X129.815 Y162.625 E26.06708
G0 F6000 X129.756 Y163.132
G1 F1200 X123.699 Y157.075 E26.35198
G0 F6000 X123.692 Y157.633
G1 F1200 X129.69 Y163.631 E26.63411
G0 F6000 X129.623 Y164.13
G1 F1200 X123.677 Y158.184 E26.91379
G0 F6000 X123.661 Y158.734
G1 F1200 X129.551 Y164.623 E27.19082
G0 F6000 X129.474 Y165.112
G1 F1200 X123.636 Y159.275 E27.4654
G0 F6000 X123.61 Y159.814
G1 F1200 X129.396 Y165.6 E27.73755
G0 F6000 X129.306 Y166.076
G1 F1200 X123.578 Y160.347 E28.007
G0 F6000 X123.541 Y160.876
G1 F1200 X129.218 Y166.554 E28.27406
G0 F6000 X129.129 Y167.03
G1 F1200 X123.502 Y161.403 E28.53873
G0 F6000 X123.457 Y161.923
G1 F1200 X129.031 Y167.498 E28.80094
G0 F6000 X128.933 Y167.965
G1 F1200 X123.412 Y162.444 E29.06063
G0 F6000 X123.359 Y162.957
G1 F1200 X128.832 Y168.43 E29.31806
G0 F6000 X128.724 Y168.888
G1 F1200 X123.304 Y163.468 E29.573
G0 F6000 X123.245 Y163.975
G1 F1200 X128.616 Y169.345 E29.82562
G0 F6000 X128.506 Y169.801
G1 F1200 X123.182 Y164.477 E30.07604
G0 F6000 X123.118 Y164.979
G1 F1200 X128.388 Y170.249 E30.32392
G0 F6000 X128.27 Y170.696
G1 F1200 X123.047 Y165.473 E30.5696
G0 F6000 X122.975 Y165.967
G1 F1200 X128.148 Y171.141 E30.81294
G0 F6000 X128.021 Y171.579
G1 F1200 X122.9 Y166.458 E31.05382
G0 F6000 X122.819 Y166.942
G1 F1200 X127.893 Y172.017 E31.29251
G0 F6000 X127.762 Y172.452
G1 F1200 X122.738 Y167.428 E31.52882
G0 F6000 X122.651 Y167.906
G1 F1200 X127.627 Y172.881 E31.76286
G0 F6000 X127.491 Y173.311
G1 F1200 X122.562 Y168.383 E31.99468
G0 F6000 X122.472 Y168.858
G1 F1200 X127.352 Y173.738 E32.22422
G0 F6000 X127.207 Y174.159
G1 F1200 X122.377 Y169.329 E32.45141
G0 F6000 X122.282 Y169.799
G1 F1200 X127.063 Y174.581 E32.67631
G0 F6000 X126.916 Y174.999
G1 F1200 X122.18 Y170.264 E32.89906
G0 F6000 X122.077 Y170.725
G1 F1200 X126.763 Y175.412 E33.11949
G0 F6000 X126.611 Y175.825
G1 F1200 X121.973 Y171.187 E33.33765
G0 F6000 X121.862 Y171.643
G1 F1200 X126.456 Y176.236 E33.55372
G0 F6000 X126.295 Y176.641
G1 F1200 X121.752 Y172.098 E33.7674
G0 F6000 X121.64 Y172.551
G1 F1200 X126.134 Y177.046 E33.97881
G0 F6000 X125.975 Y177.452
G1 F1200 X121.522 Y173 E34.18824
G0 F6000 X121.405 Y173.448
G1 F1200 X125.807 Y177.85 E34.3953
G0 F6000 X125.64 Y178.248
G1 F1200 X121.283 Y173.892 E34.60022
G0 F6000 X121.159 Y174.333
G1 F1200 X125.473 Y178.647 E34.80313
G0 F6000 X125.301 Y179.041
G1 F1200 X121.034 Y174.774 E35.00384
G0 F6000 X120.905 Y175.211
G1 F1200 X125.128 Y179.434 E35.20248
G0 F6000 X124.956 Y179.827
G1 F1200 X120.774 Y175.646 E35.39916
G0 F6000 X120.643 Y176.08
G1 F1200 X124.78 Y180.217 E35.59375
G0 F6000 X124.602 Y180.605
G1 F1200 X120.507 Y176.51 E35.78637
G0 F6000 X120.37 Y176.938
G1 F1200 X124.424 Y180.993 E35.97708
G0 F6000 X124.244 Y181.378
G1 F1200 X120.232 Y177.367 E36.16577
G0 F6000 X120.089 Y177.789
G1 F1200 X124.062 Y181.762 E36.35265
G0 F6000 X123.88 Y182.145
G1 F1200 X119.945 Y178.211 E36.53772
G0 F6000 X119.802 Y178.633
G1 F1200 X123.696 Y182.527 E36.72088
G0 F6000 X123.508 Y182.905
G1 F1200 X119.653 Y179.05 E36.9022
G0 F6000 X119.503 Y179.465
G1 F1200 X123.321 Y183.284 E37.08182
G0 F6000 X123.132 Y183.661
G1 F1200 X119.353 Y179.881 E37.25959
G0 F6000 X119.196 Y180.291
G1 F1200 X122.94 Y184.034 E37.43567
G0 F6000 X122.748 Y184.407
G1 F1200 X119.041 Y180.701 E37.61002
G0 F6000 X118.885 Y181.11
G1 F1200 X122.555 Y184.781 E37.78267
G0 F6000 X122.357 Y185.148
G1 F1200 X118.723 Y181.515 E37.95357
G0 F6000 X118.563 Y181.92
G1 F1200 X122.158 Y185.515 E38.12267
G0 F6000 X121.96 Y185.882
G1 F1200 X118.402 Y182.324 E38.29003
G0 F6000 X118.235 Y182.723
G1 F1200 X121.757 Y186.245 E38.45569
G0 F6000 X121.554 Y186.608
G1 F1200 X118.069 Y183.122 E38.61964
G0 F6000 X117.902 Y183.521
G1 F1200 X121.351 Y186.971 E38.78189
G0 F6000 X121.143 Y187.328
G1 F1200 X117.731 Y183.916 E38.94238
G0 F6000 X117.558 Y184.309
G1 F1200 X120.935 Y187.686 E39.10123
G0 F6000 X120.727 Y188.043
G1 F1200 X117.386 Y184.702 E39.25838
G0 F6000 X117.21 Y185.092
G1 F1200 X120.514 Y188.396 E39.41379
G0 F6000 X120.3 Y188.748
G1 F1200 X117.032 Y185.48 E39.56751
G0 F6000 X116.854 Y185.867
G1 F1200 X120.086 Y189.1 E39.71955
G0 F6000 X119.868 Y189.448
G1 F1200 X116.674 Y186.253 E39.86981
G0 F6000 X116.491 Y186.636
G1 F1200 X119.65 Y189.795 E40.0184
G0 F6000 X119.431 Y190.141
G1 F1200 X116.308 Y187.019 E40.16527
G0 F6000 X116.124 Y187.4
G1 F1200 X119.209 Y190.485 E40.31038
G0 F6000 X118.984 Y190.826
G1 F1200 X115.937 Y187.779 E40.4537
G0 F6000 X115.749 Y188.156
G1 F1200 X118.759 Y191.167 E40.59531
G0 F6000 X118.533 Y191.506
G1 F1200 X115.561 Y188.535 E40.73508
G0 F6000 X115.369 Y188.908
G1 F1200 X118.303 Y191.842 E40.87309
G0 F6000 X118.073 Y192.178
G1 F1200 X115.176 Y189.281 E41.00935
G0 F6000 X114.984 Y189.654
G1 F1200 X117.84 Y192.511 E41.14371
G0 F6000 X117.605 Y192.841
G1 F1200 X114.788 Y190.024 E41.27622
G0 F6000 X114.591 Y190.393
G1 F1200 X117.37 Y193.172 E41.40693
G0 F6000 X117.132 Y193.499
G1 F1200 X114.394 Y190.761 E41.53572
G0 F6000 X114.195 Y191.128
G1 F1200 X116.891 Y193.825 E41.66255
G0 F6000 X116.65 Y194.149
G1 F1200 X113.993 Y191.492 E41.78753
G0 F6000 X113.791 Y191.855
G1 F1200 X116.408 Y194.472 E41.91063
G0 F6000 X116.162 Y194.792
G1 F1200 X113.588 Y192.219 E42.03168
G0 F6000 X113.383 Y192.579
G1 F1200 X115.894 Y195.09 E42.14979
G0 F6000 X115.328 Y195.09
G1 F1200 X113.177 Y192.939 E42.25096
G0 F6000 X112.971 Y193.298
G1 F1200 X114.762 Y195.09 E42.33523
G0 F6000 X114.197 Y195.09
G1 F1200 X112.762 Y193.655 E42.40273
G0 F6000 X112.551 Y194.01
G1 F1200 X113.631 Y195.09 E42.45353
G0 F6000 X113.065 Y195.09
G1 F1200 X112.34 Y194.365 E42.48763
G0 F6000 X112.129 Y194.719
G1 F1200 X112.499 Y195.09 E42.50506
G0 F6000 X112.499 Y195.531
G0 X111.476 Y195.531
G0 X111.476 Y195.48
;TYPE:SKIN
G1 F1200 X111.308 Y195.312 E42.50901
G0 F6000 X111.268 Y195.287
G0 X114.481 Y189.519
G0 X116.311 Y185.832
G0 X117.925 Y182.145
G0 X119.323 Y178.457
G0 X120.507 Y174.768
G0 X121.475 Y171.078
G0 X122.229 Y167.386
G0 X122.767 Y163.695
G0 X123.09 Y160.003
G0 X123.198 Y156.31
G0 X123.087 Y152.468
G0 X122.757 Y148.642
G0 X122.207 Y144.831
G0 X121.436 Y141.036
G0 X120.237 Y136.497
G0 X118.726 Y132.097
G0 X117.094 Y128.242
G0 X115.135 Y124.435
G0 X111.298 Y117.409
G0 X111.407 Y117.347
G1 F1200 X111.2 Y117.14 E42.51388
G0 F6000 X111.199 Y117.139
G0 X111.549 Y118.024
G0 X110.957 Y118.364
G0 X98.506 Y168.946
G0 X98.506 Y169.625
G0 X98.13 Y169.721
G0 X98.13 Y170.001
;TYPE:SKIN
G1 F1200 X98.13 Y177.611 E42.76699
G1 X90.52 Y177.611 E43.02009
G1 X90.52 Y170.001 E43.2732
G1 X98.13 Y170.001 E43.52631
G0 F6000 X97.97 Y170.378
G1 F1200 X97.752 Y170.16 E43.53657
G0 F6000 X97.186 Y170.16
G1 F1200 X97.97 Y170.943 E43.57342
G0 F6000 X97.97 Y171.509
G1 F1200 X96.621 Y170.16 E43.63687
G0 F6000 X96.055 Y170.16
G1 F1200 X97.97 Y172.075 E43.72695
G0 F6000 X97.97 Y172.64
G1 F1200 X95.489 Y170.16 E43.84363
G0 F6000 X94.924 Y170.16
G1 F1200 X97.97 Y173.206 E43.9869
G0 F6000 X97.97 Y173.772
G1 F1200 X94.358 Y170.16 E44.1568
G0 F6000 X93.792 Y170.16
G1 F1200 X97.97 Y174.337 E44.35329
G0 F6000 X97.97 Y174.903
G1 F1200 X93.227 Y170.16 E44.57639
G0 F6000 X92.661 Y170.16
G1 F1200 X97.97 Y175.469 E44.82611
G0 F6000 X97.97 Y176.034
G1 F1200 X92.095 Y170.16 E45.10243
G0 F6000 X91.53 Y170.16
